main/assets/media/img/logo/ccdd_icon2.svg

<svg width="402" height="409" xmlns="http://www.w3.org/2000/svg"><path d="M65.908 258.797c-3.356.22-5.187-.229-7.116-1.746-1.428-1.123-3.913-4.407-5.522-7.296-1.61-2.89-4.069-8.18-5.465-11.755-1.396-3.575-3.531-10.325-4.743-15-1.213-4.675-2.285-11.425-2.383-15-.179-6.5-.179-6.5 4.307-6.819 2.467-.175 4.693-.527 4.947-.781.254-.254-.385-1.894-1.419-3.646-1.035-1.751-6.725-9.199-12.644-16.55-8.143-10.112-12.257-16.33-16.894-25.535-3.805-7.553-7.063-15.773-8.59-21.669-1.412-5.452-2.719-14.03-3.069-20.132-.357-6.235-.118-14.464.58-19.9.653-5.098 2.748-14.039 4.654-19.869 1.906-5.829 4.699-12.818 6.207-15.531 1.508-2.712 3.266-5.1 3.906-5.305.641-.205 2.639 1.79 4.44 4.432 1.802 2.643 5.684 7.841 8.626 11.552 2.943 3.711 8.03 8.977 11.304 11.702 3.275 2.725 9.001 6.765 12.726 8.978 3.725 2.213 9.504 5.133 12.844 6.49 3.339 1.357 9.993 3.433 14.785 4.612 4.793 1.18 9.416 1.876 10.274 1.547 1.066-.409 1.415-1.467 1.099-3.338-.253-1.506-2.558-7.785-5.122-13.954-2.564-6.168-5.607-15.168-6.763-20-1.603-6.698-2.112-12.12-2.143-22.834-.028-9.589.484-16.377 1.613-21.377.91-4.03 2.851-9.992 4.313-13.249 1.988-4.431 3.112-5.846 4.464-5.623.993.165 5.914 4.923 10.933 10.575 5.02 5.652 12.632 13.364 16.915 17.138 4.283 3.774 11.112 9.106 15.175 11.848 4.064 2.742 11.014 6.833 15.444 9.09 4.431 2.258 11.173 5.281 14.983 6.719 3.809 1.438 10.976 3.512 15.926 4.609 7.085 1.57 15.065 2.174 37.5 2.839 23.321.692 29.886 1.208 36.13 2.841 4.196 1.098 11.239 3.812 15.651 6.03 4.479 2.252 10.659 6.475 13.992 9.56 3.283 3.04 8.165 8.902 10.848 13.026 2.684 4.124 5.221 7.504 5.638 7.511.418.007 1.929-1.674 3.357-3.737 1.428-2.062 5.413-8.475 8.854-14.25 3.44-5.775 6.954-10.638 7.807-10.807 1.225-.242 1.672 1.02 2.123 6 .315 3.469.696 14.502.847 24.518.157 10.323.704 18.614 1.265 19.141.614.578 4.012.035 8.988-1.438 6.275-1.856 10.397-2.372 19.116-2.39 10.744-.023 11.351.094 18.173 3.507 3.882 1.942 8.53 5.204 10.329 7.25 3.271 3.719 3.271 3.719-6.935 4.28-5.613.309-10.662 1.018-11.22 1.576-.687.687.044 2.335 2.261 5.095 1.802 2.243 6.063 7.035 9.469 10.649 3.986 4.229 7.457 9.235 9.741 14.048 1.952 4.113 4.115 9.593 4.807 12.179.693 2.586 1.259 9.942 1.259 16.347 0 7.659-.462 12.654-1.351 14.595-1.352 2.95-1.352 2.95-4.754-.971-1.897-2.186-4.361-3.956-5.568-4-1.603-.059-2.357.699-2.906 2.921-.408 1.65-1.045 6.6-1.416 11-.372 4.4-1.788 11.375-3.148 15.5s-4.295 10.65-6.523 14.5c-2.228 3.85-4.952 7.788-6.053 8.75-1.484 1.297-3.754 1.75-8.77 1.75-6.455 0-6.818-.127-7.848-2.75-.594-1.512-2.033-11.3-3.197-21.75-1.164-10.45-2.557-20.716-3.097-22.812-.742-2.89-1.425-3.737-2.821-3.5-1.012.171-5.375 3.687-9.694 7.812-4.32 4.125-10.672 8.992-14.116 10.815-3.445 1.824-9.337 4.389-13.094 5.702-3.757 1.313-10.839 3.115-15.737 4.005-4.899.89-13.027 1.7-18.063 1.798-5.036.099-9.506-.165-9.933-.586-.427-.422.093-1.838 1.156-3.147l6.58-8.104c2.556-3.148 5.769-8.032 7.142-10.854 1.372-2.821 3.219-7.978 4.103-11.46.884-3.482 1.608-7.433 1.608-8.781 0-1.348-.652-2.701-1.449-3.007-.797-.305-2.034-.065-2.75.534-.715.599-3.551 2.637-6.301 4.529-2.75 1.891-9.05 6.203-14 9.582-4.95 3.379-14.85 8.993-22 12.476-7.15 3.483-17.063 7.498-22.029 8.923-4.966 1.425-12.841 3.262-17.5 4.082-5.579.981-15.164 1.491-28.072 1.492-11.656 0-20.877-.444-22.75-1.097-1.903-.663-3.149-1.785-3.149-2.836 0-1.36 2.23-2.333 10.25-4.473 5.637-1.504 14.458-4.721 19.602-7.148 5.143-2.428 12.118-6.397 15.5-8.821 3.381-2.423 8.318-6.557 10.971-9.186 2.653-2.629 6.392-6.694 8.308-9.033 1.917-2.339 4.007-5.636 4.645-7.325.95-2.518.886-3.346-.356-4.589-1.236-1.236-2.464-1.336-6.648-.543-2.823.536-8.651 1.857-12.952 2.937-4.301 1.08-11.42 2.561-15.82 3.29-4.4.729-15.425 1.325-24.5 1.325-10.194 0-19.175-.538-23.5-1.406-3.85-.774-10.375-2.473-14.5-3.775-4.125-1.303-9.606-2.641-12.18-2.975-4.68-.606-4.68-.606-5.199 2.775-.286 1.86-.787 7.656-1.114 12.881-.327 5.225-1.506 14-2.62 19.5s-4.003 15.816-6.42 22.925c-2.418 7.109-5.665 14.984-7.218 17.5-2.604 4.222-3.17 4.598-7.341 4.872zM140 369.709c-30.578.157-41.653-.108-45.208-1.085-2.589-.711-6.566-2.582-8.839-4.156-2.272-1.575-5.953-4.912-8.18-7.416-2.226-2.503-5.092-6.884-6.368-9.734-1.276-2.851-3.024-9.376-3.884-14.5-.861-5.125-2.287-10.982-3.171-13.015-1.08-2.486-2.792-4.246-5.228-5.374-1.992-.922-4.642-2.607-5.889-3.743-1.247-1.137-2.753-3.69-3.348-5.674-.852-2.845-.76-4.374.434-7.232.833-1.994 2.619-4.349 3.97-5.234 1.351-.885 5.008-2.025 8.126-2.532 4.885-.795 6.52-1.693 11.816-6.485 3.552-3.215 7.86-6.082 10.207-6.795 2.966-.901 16.344-1.234 49.562-1.234 45.019 0 45.548.023 50 2.225 2.475 1.224 6.75 4.196 9.5 6.606 5 4.38 5 4.38 19.994 4.887 14.995.507 14.995.507 20.887-4.825 3.241-2.933 7.968-6.133 10.506-7.112 4.176-1.612 8.84-1.781 49.222-1.781 40.172 0 44.969.172 48.231 1.725 1.993.949 6.327 4.211 9.633 7.25 4.925 4.528 6.648 5.525 9.55 5.525 1.948 0 5.072.64 6.943 1.421 1.891.79 4.097 2.766 4.968 4.451.861 1.666 1.564 4.514 1.561 6.328-.003 1.815-.791 4.439-1.75 5.831-.96 1.392-4.26 4.992-7.334 8-5.588 5.469-5.588 5.469-7.757 16.469-1.193 6.05-3.346 13.408-4.785 16.351-1.438 2.944-4.976 7.713-7.861 10.598-2.886 2.885-7.443 6.327-10.127 7.648C330.5 369.5 330.5 369.5 290 369.5c-31.01 0-41.536-.314-44.922-1.342-3.014-.914-6.236-3.156-10.125-7.045-3.137-3.137-6.671-7.601-7.854-9.919-1.183-2.319-2.587-7.699-3.119-11.955-.532-4.257-1.107-12.186-1.276-17.62-.292-9.366-.451-10.005-3.062-12.25-1.514-1.303-3.897-2.369-5.293-2.369-1.397 0-3.848.772-5.446 1.716-1.598.944-3.18 2.581-3.515 3.638-.336 1.057-.95 8.837-1.364 17.288-.711 14.488-.936 15.736-3.931 21.821-1.868 3.795-4.91 7.948-7.385 10.082-2.314 1.996-6.008 4.603-8.208 5.792-3.893 2.105-5.087 2.169-44.5 2.372zm2.5-18.077c27.047-.128 31.396-.362 34.102-1.838 1.705-.931 4.472-3.253 6.148-5.162 2.849-3.244 3.094-4.163 3.774-14.142.4-5.87.514-13.991.254-18.047-.361-5.619-1.045-8.21-2.876-10.884-1.321-1.931-3.883-4.309-5.693-5.285-3.006-1.62-7.012-1.774-46.169-1.774-42.878 0-42.878 0-45.476 2.44-1.429 1.342-3.084 4.064-3.679 6.05-.78 2.604-.768 6.24.043 13.06.619 5.197 1.592 12.15 2.164 15.45.572 3.3 2.139 7.684 3.482 9.741 1.344 2.058 4.317 4.983 6.608 6.5 2.867 1.899 6.059 2.958 10.242 3.398 3.342.352 20.026.574 37.076.493zm155-.315c13.2-.22 25.362-.607 27.026-.861 1.665-.255 4.715-1.855 6.779-3.556s4.635-4.823 5.714-6.937c1.078-2.114 2.641-7.808 3.472-12.653.832-4.846 1.611-12.41 1.731-16.81.169-6.182-.174-8.587-1.508-10.585-.95-1.421-2.919-3.221-4.375-4-2.161-1.154-10.241-1.415-43.901-1.415-41.253 0-41.253 0-45.096 3.104-2.113 1.707-4.279 4.329-4.812 5.827-.534 1.498-.984 10.528-1 20.068-.028 15.983.132 17.562 2.032 20.111 1.134 1.522 3.301 3.694 4.817 4.828 2.247 1.682 4.818 2.174 13.938 2.67 6.151.334 21.983.428 35.183.209z"/></svg>

<?xml version="1.0" encoding="UTF-8"?>
<svg width="402px" height="409px" viewBox="0 0 402 409" xmlns="http://www.w3.org/2000/svg" xmlns:xlink="http://www.w3.org/1999/xlink" version="1.1">
 <!-- Generated by Pixelmator Pro 2.2 -->
 <path id="ccdd" d="M65.908 258.797 C62.552 259.017 60.721 258.568 58.792 257.051 57.364 255.928 54.879 252.644 53.27 249.755 51.66 246.865 49.201 241.575 47.805 238 46.409 234.425 44.274 227.675 43.062 223 41.849 218.325 40.777 211.575 40.679 208 40.5 201.5 40.5 201.5 44.986 201.181 47.453 201.006 49.679 200.654 49.933 200.4 50.187 200.146 49.548 198.506 48.514 196.754 47.479 195.003 41.789 187.555 35.87 180.204 27.727 170.092 23.613 163.874 18.976 154.669 15.171 147.116 11.913 138.896 10.386 133 8.974 127.548 7.667 118.97 7.317 112.868 6.96 106.633 7.199 98.404 7.897 92.968 8.55 87.87 10.645 78.929 12.551 73.099 14.457 67.27 17.25 60.281 18.758 57.568 20.266 54.856 22.024 52.468 22.664 52.263 23.305 52.058 25.303 54.053 27.104 56.695 28.906 59.338 32.788 64.536 35.73 68.247 38.673 71.958 43.76 77.224 47.034 79.949 50.309 82.674 56.035 86.714 59.76 88.927 63.485 91.14 69.264 94.06 72.604 95.417 75.943 96.774 82.597 98.85 87.389 100.029 92.182 101.209 96.805 101.905 97.663 101.576 98.729 101.167 99.078 100.109 98.762 98.238 98.509 96.732 96.204 90.453 93.64 84.284 91.076 78.116 88.033 69.116 86.877 64.284 85.274 57.586 84.765 52.164 84.734 41.45 84.706 31.861 85.218 25.073 86.347 20.073 87.257 16.043 89.198 10.081 90.66 6.824 92.648 2.393 93.772 0.978 95.124 1.201 96.117 1.366 101.038 6.124 106.057 11.776 111.077 17.428 118.689 25.14 122.972 28.914 127.255 32.688 134.084 38.02 138.147 40.762 142.211 43.504 149.161 47.595 153.591 49.852 158.022 52.11 164.764 55.133 168.574 56.571 172.383 58.009 179.55 60.083 184.5 61.18 191.585 62.75 199.565 63.354 222 64.019 245.321 64.711 251.886 65.227 258.13 66.86 262.326 67.958 269.369 70.672 273.781 72.89 278.26 75.142 284.44 79.365 287.773 82.45 291.056 85.49 295.938 91.352 298.621 95.476 301.305 99.6 303.842 102.98 304.259 102.987 304.677 102.994 306.188 101.313 307.616 99.25 309.044 97.188 313.029 90.775 316.47 85 319.91 79.225 323.424 74.362 324.277 74.193 325.502 73.951 325.949 75.213 326.4 80.193 326.715 83.662 327.096 94.695 327.247 104.711 327.404 115.034 327.951 123.325 328.512 123.852 329.126 124.43 332.524 123.887 337.5 122.414 343.775 120.558 347.897 120.042 356.616 120.024 367.36 120.001 367.967 120.118 374.789 123.531 378.671 125.473 383.319 128.735 385.118 130.781 388.389 134.5 388.389 134.5 378.183 135.061 372.57 135.37 367.521 136.079 366.963 136.637 366.276 137.324 367.007 138.972 369.224 141.732 371.026 143.975 375.287 148.767 378.693 152.381 382.679 156.61 386.15 161.616 388.434 166.429 390.386 170.542 392.549 176.022 393.241 178.608 393.934 181.194 394.5 188.55 394.5 194.955 394.5 202.614 394.038 207.609 393.149 209.55 391.797 212.5 391.797 212.5 388.395 208.579 386.498 206.393 384.034 204.623 382.827 204.579 381.224 204.52 380.47 205.278 379.921 207.5 379.513 209.15 378.876 214.1 378.505 218.5 378.133 222.9 376.717 229.875 375.357 234 373.997 238.125 371.062 244.65 368.834 248.5 366.606 252.35 363.882 256.288 362.781 257.25 361.297 258.547 359.027 259 354.011 259 347.556 259 347.193 258.873 346.163 256.25 345.569 254.738 344.13 244.95 342.966 234.5 341.802 224.05 340.409 213.784 339.869 211.688 339.127 208.798 338.444 207.951 337.048 208.188 336.036 208.359 331.673 211.875 327.354 216 323.034 220.125 316.682 224.992 313.238 226.815 309.793 228.639 303.901 231.204 300.144 232.517 296.387 233.83 289.305 235.632 284.407 236.522 279.508 237.412 271.38 238.222 266.344 238.32 261.308 238.419 256.838 238.155 256.411 237.734 255.984 237.312 256.504 235.896 257.567 234.587 258.63 233.278 261.591 229.631 264.147 226.483 266.703 223.335 269.916 218.451 271.289 215.629 272.661 212.808 274.508 207.651 275.392 204.169 276.276 200.687 277 196.736 277 195.388 277 194.04 276.348 192.687 275.551 192.381 274.754 192.076 273.517 192.316 272.801 192.915 272.086 193.514 269.25 195.552 266.5 197.444 263.75 199.335 257.45 203.647 252.5 207.026 247.55 210.405 237.65 216.019 230.5 219.502 223.35 222.985 213.437 227 208.471 228.425 203.505 229.85 195.63 231.687 190.971 232.507 185.392 233.488 175.807 233.998 162.899 233.999 151.243 233.999 142.022 233.555 140.149 232.902 138.246 232.239 137 231.117 137 230.066 137 228.706 139.23 227.733 147.25 225.593 152.887 224.089 161.708 220.872 166.852 218.445 171.995 216.017 178.97 212.048 182.352 209.624 185.733 207.201 190.67 203.067 193.323 200.438 195.976 197.809 199.715 193.744 201.631 191.405 203.548 189.066 205.638 185.769 206.276 184.08 207.226 181.562 207.162 180.734 205.92 179.491 204.684 178.255 203.456 178.155 199.272 178.948 196.449 179.484 190.621 180.805 186.32 181.885 182.019 182.965 174.9 184.446 170.5 185.175 166.1 185.904 155.075 186.5 146 186.5 135.806 186.5 126.825 185.962 122.5 185.094 118.65 184.32 112.125 182.621 108 181.319 103.875 180.016 98.394 178.678 95.82 178.344 91.14 177.738 91.14 177.738 90.621 181.119 90.335 182.979 89.834 188.775 89.507 194 89.18 199.225 88.001 208 86.887 213.5 85.773 219 82.884 229.316 80.467 236.425 78.049 243.534 74.802 251.409 73.249 253.925 70.645 258.147 70.079 258.523 65.908 258.797 Z M140 369.709 C109.422 369.866 98.347 369.601 94.792 368.624 92.203 367.913 88.226 366.042 85.953 364.468 83.681 362.893 80 359.556 77.773 357.052 75.547 354.549 72.681 350.168 71.405 347.318 70.129 344.467 68.381 337.942 67.521 332.818 66.66 327.693 65.234 321.836 64.35 319.803 63.27 317.317 61.558 315.557 59.122 314.429 57.13 313.507 54.48 311.822 53.233 310.686 51.986 309.549 50.48 306.996 49.885 305.012 49.033 302.167 49.125 300.638 50.319 297.78 51.152 295.786 52.938 293.431 54.289 292.546 55.64 291.661 59.297 290.521 62.415 290.014 67.3 289.219 68.935 288.321 74.231 283.529 77.783 280.314 82.091 277.447 84.438 276.734 87.404 275.833 100.782 275.5 134 275.5 179.019 275.5 179.548 275.523 184 277.725 186.475 278.949 190.75 281.921 193.5 284.331 198.5 288.711 198.5 288.711 213.494 289.218 228.489 289.725 228.489 289.725 234.381 284.393 237.622 281.46 242.349 278.26 244.887 277.281 249.063 275.669 253.727 275.5 294.109 275.5 334.281 275.5 339.078 275.672 342.34 277.225 344.333 278.174 348.667 281.436 351.973 284.475 356.898 289.003 358.621 290 361.523 290 363.471 290 366.595 290.64 368.466 291.421 370.357 292.211 372.563 294.187 373.434 295.872 374.295 297.538 374.998 300.386 374.995 302.2 374.992 304.015 374.204 306.639 373.245 308.031 372.285 309.423 368.985 313.023 365.911 316.031 360.323 321.5 360.323 321.5 358.154 332.5 356.961 338.55 354.808 345.908 353.369 348.851 351.931 351.795 348.393 356.564 345.508 359.449 342.622 362.334 338.065 365.776 335.381 367.097 330.5 369.5 330.5 369.5 290 369.5 258.99 369.5 248.464 369.186 245.078 368.158 242.064 367.244 238.842 365.002 234.953 361.113 231.816 357.976 228.282 353.512 227.099 351.194 225.916 348.875 224.512 343.495 223.98 339.239 223.448 334.982 222.873 327.053 222.704 321.619 222.412 312.253 222.253 311.614 219.642 309.369 218.128 308.066 215.745 307 214.349 307 212.952 307 210.501 307.772 208.903 308.716 207.305 309.66 205.723 311.297 205.388 312.354 205.052 313.411 204.438 321.191 204.024 329.642 203.313 344.13 203.088 345.378 200.093 351.463 198.225 355.258 195.183 359.411 192.708 361.545 190.394 363.541 186.7 366.148 184.5 367.337 180.607 369.442 179.413 369.506 140 369.709 Z M142.5 351.632 C169.547 351.504 173.896 351.27 176.602 349.794 178.307 348.863 181.074 346.541 182.75 344.632 185.599 341.388 185.844 340.469 186.524 330.49 186.924 324.62 187.038 316.499 186.778 312.443 186.417 306.824 185.733 304.233 183.902 301.559 182.581 299.628 180.019 297.25 178.209 296.274 175.203 294.654 171.197 294.5 132.04 294.5 89.162 294.5 89.162 294.5 86.564 296.94 85.135 298.282 83.48 301.004 82.885 302.99 82.105 305.594 82.117 309.23 82.928 316.05 83.547 321.247 84.52 328.2 85.092 331.5 85.664 334.8 87.231 339.184 88.574 341.241 89.918 343.299 92.891 346.224 95.182 347.741 98.049 349.64 101.241 350.699 105.424 351.139 108.766 351.491 125.45 351.713 142.5 351.632 Z M297.5 351.317 C310.7 351.097 322.862 350.71 324.526 350.456 326.191 350.201 329.241 348.601 331.305 346.9 333.369 345.199 335.94 342.077 337.019 339.963 338.097 337.849 339.66 332.155 340.491 327.31 341.323 322.464 342.102 314.9 342.222 310.5 342.391 304.318 342.048 301.913 340.714 299.915 339.764 298.494 337.795 296.694 336.339 295.915 334.178 294.761 326.098 294.5 292.438 294.5 251.185 294.5 251.185 294.5 247.342 297.604 245.229 299.311 243.063 301.933 242.53 303.431 241.996 304.929 241.546 313.959 241.53 323.499 241.502 339.482 241.662 341.061 243.562 343.61 244.696 345.132 246.863 347.304 248.379 348.438 250.626 350.12 253.197 350.612 262.317 351.108 268.468 351.442 284.3 351.536 297.5 351.317 Z" fill="#000000" fill-opacity="1" stroke="none"/>
</svg>
